img/icons/fitbands_icon.svg

<svg enable-background="new 0 0 107 65" version="1.1" viewBox="0 0 107 65" xml:space="preserve" xmlns="http://www.w3.org/2000/svg"><g fill="#363636"><path d="m98.967 4.074c0.752 1.441 1.209 3.08 1.209 4.818v21.102c0 4.616-3.092 8.527-7.246 9.9-1.325 3.987-3.778 7.854-8.051 10.432-8.676 5.231-31.124 4.837-31.198 4.837-0.078 0-22.513 0.395-31.189-4.837-4.216-2.545-6.708-6.347-8.042-10.279-4.418-1.209-7.756-5.251-7.756-10.053v-21.101c0-1.688 0.427-3.282 1.139-4.693-3.663 0.909-7.833 2.718-7.833 6.234v29.983c0 10.251 11.839 24.433 53.657 24.433 41.82 0 53.657-14.182 53.657-24.433v-29.983c-1e-3 -3.684-4.576-5.494-8.347-6.36z"/><path d="m20.561 38.459h65.523c5.564 0 10.074-4.513 10.074-10.077v-18.447c0-5.563-4.51-10.075-10.074-10.075h-65.523c-5.564 0-10.075 4.511-10.075 10.075v18.447c0 5.564 4.511 10.077 10.075 10.077zm63.134-28.991c0.867 0 1.569 0.703 1.569 1.57 0 0.866-0.702 1.569-1.569 1.569s-1.568-0.703-1.568-1.569c0-0.868 0.701-1.57 1.568-1.57zm0 4.039c0.867 0 1.569 0.703 1.569 1.568 0 0.867-0.702 1.569-1.569 1.569s-1.568-0.702-1.568-1.569c0-0.865 0.701-1.568 1.568-1.568zm0 4.039c0.867 0 1.569 0.702 1.569 1.569 0 0.866-0.702 1.569-1.569 1.569s-1.568-0.703-1.568-1.569c0-0.867 0.701-1.569 1.568-1.569zm0 3.827c0.867 0 1.569 0.704 1.569 1.569 0 0.867-0.702 1.568-1.569 1.568s-1.568-0.701-1.568-1.568c0-0.866 0.701-1.569 1.568-1.569zm0 4.039c0.867 0 1.569 0.702 1.569 1.569 0 0.865-0.702 1.568-1.569 1.568s-1.568-0.704-1.568-1.568c0-0.867 0.701-1.569 1.568-1.569zm-4.039-15.944c0.867 0 1.568 0.703 1.568 1.57 0 0.866-0.701 1.569-1.568 1.569-0.865 0-1.568-0.703-1.568-1.569 0-0.868 0.703-1.57 1.568-1.57zm0 15.944c0.867 0 1.568 0.702 1.568 1.569 0 0.865-0.701 1.568-1.568 1.568-0.865 0-1.568-0.704-1.568-1.568 0-0.867 0.703-1.569 1.568-1.569zm-4.037-15.944c0.865 0 1.568 0.703 1.568 1.57 0 0.866-0.703 1.569-1.568 1.569-0.867 0-1.569-0.703-1.569-1.569 0-0.868 0.702-1.57 1.569-1.57zm0 4.039c0.865 0 1.568 0.703 1.568 1.568 0 0.867-0.703 1.569-1.568 1.569-0.867 0-1.569-0.702-1.569-1.569 0-0.865 0.702-1.568 1.569-1.568zm0 4.039c0.865 0 1.568 0.702 1.568 1.569 0 0.866-0.703 1.569-1.568 1.569-0.867 0-1.569-0.703-1.569-1.569 0-0.867 0.702-1.569 1.569-1.569zm0 3.827c0.865 0 1.568 0.704 1.568 1.569 0 0.867-0.703 1.568-1.568 1.568-0.867 0-1.569-0.701-1.569-1.568 0-0.866 0.702-1.569 1.569-1.569zm0 4.039c0.865 0 1.568 0.702 1.568 1.569 0 0.865-0.703 1.568-1.568 1.568-0.867 0-1.569-0.704-1.569-1.568 0-0.867 0.702-1.569 1.569-1.569zm-7.654-15.944c0.867 0 1.568 0.703 1.568 1.57 0 0.866-0.701 1.569-1.568 1.569s-1.568-0.703-1.568-1.569c-1e-3 -0.868 0.703-1.57 1.568-1.57zm0 8.078c0.867 0 1.568 0.702 1.568 1.569 0 0.866-0.701 1.569-1.568 1.569s-1.568-0.703-1.568-1.569c-1e-3 -0.867 0.703-1.569 1.568-1.569zm0 3.881c0.867 0 1.568 0.701 1.568 1.568 0 0.865-0.701 1.569-1.568 1.569s-1.568-0.704-1.568-1.569c-1e-3 -0.867 0.703-1.568 1.568-1.568zm0 3.985c0.867 0 1.568 0.702 1.568 1.569 0 0.865-0.701 1.568-1.568 1.568s-1.568-0.704-1.568-1.568c-1e-3 -0.867 0.703-1.569 1.568-1.569zm-4.039-15.944c0.867 0 1.57 0.703 1.57 1.57 0 0.866-0.703 1.569-1.57 1.569-0.865 0-1.569-0.703-1.569-1.569-1e-3 -0.868 0.704-1.57 1.569-1.57zm0 8.078c0.867 0 1.57 0.702 1.57 1.569 0 0.866-0.703 1.569-1.57 1.569-0.865 0-1.569-0.703-1.569-1.569-1e-3 -0.867 0.704-1.569 1.569-1.569zm0 7.866c0.867 0 1.57 0.702 1.57 1.569 0 0.865-0.703 1.568-1.57 1.568-0.865 0-1.569-0.704-1.569-1.568-1e-3 -0.867 0.704-1.569 1.569-1.569zm-4.038-15.944c0.865 0 1.569 0.703 1.569 1.57 0 0.866-0.704 1.569-1.569 1.569-0.867 0-1.568-0.703-1.568-1.569-1e-3 -0.868 0.701-1.57 1.568-1.57zm0 4.039c0.865 0 1.569 0.703 1.569 1.568 0 0.867-0.704 1.569-1.569 1.569-0.867 0-1.568-0.702-1.568-1.569-1e-3 -0.865 0.701-1.568 1.568-1.568zm0 4.039c0.865 0 1.569 0.702 1.569 1.569 0 0.866-0.704 1.569-1.569 1.569-0.867 0-1.568-0.703-1.568-1.569-1e-3 -0.867 0.701-1.569 1.568-1.569zm0 7.866c0.865 0 1.569 0.702 1.569 1.569 0 0.865-0.704 1.568-1.569 1.568-0.867 0-1.568-0.704-1.568-1.568-1e-3 -0.867 0.701-1.569 1.568-1.569zm-8.29-15.944c0.867 0 1.569 0.703 1.569 1.57 0 0.866-0.702 1.569-1.569 1.569s-1.568-0.703-1.568-1.569c-1e-3 -0.868 0.701-1.57 1.568-1.57zm0 4.039c0.867 0 1.569 0.703 1.569 1.568 0 0.867-0.702 1.569-1.569 1.569s-1.568-0.702-1.568-1.569c-1e-3 -0.865 0.701-1.568 1.568-1.568zm0 4.039c0.867 0 1.569 0.702 1.569 1.569 0 0.866-0.702 1.569-1.569 1.569s-1.568-0.703-1.568-1.569c-1e-3 -0.867 0.701-1.569 1.568-1.569zm0 3.881c0.867 0 1.569 0.701 1.569 1.568 0 0.865-0.702 1.569-1.569 1.569s-1.568-0.704-1.568-1.569c-1e-3 -0.867 0.701-1.568 1.568-1.568zm0 3.985c0.867 0 1.569 0.702 1.569 1.569 0 0.865-0.702 1.568-1.569 1.568s-1.568-0.704-1.568-1.568c-1e-3 -0.867 0.701-1.569 1.568-1.569zm-4.039-11.905c0.867 0 1.568 0.703 1.568 1.568 0 0.867-0.701 1.569-1.568 1.569s-1.569-0.702-1.569-1.569c0-0.865 0.701-1.568 1.569-1.568zm-8.502-0.212c0.865 0 1.569 0.703 1.569 1.568 0 0.867-0.704 1.569-1.569 1.569-0.867 0-1.571-0.703-1.571-1.569 0-0.865 0.703-1.568 1.571-1.568zm0 4.038c0.865 0 1.569 0.703 1.569 1.57 0 0.866-0.704 1.57-1.569 1.57-0.867 0-1.571-0.704-1.571-1.57 0-0.867 0.703-1.57 1.571-1.57zm-4.039-8.078c0.865 0 1.568 0.703 1.568 1.57 0 0.866-0.704 1.568-1.568 1.568-0.867 0-1.569-0.703-1.569-1.568 0-0.867 0.701-1.57 1.569-1.57zm0 4.04c0.865 0 1.568 0.703 1.568 1.568 0 0.867-0.704 1.569-1.568 1.569-0.867 0-1.569-0.703-1.569-1.569 0-0.865 0.701-1.568 1.569-1.568zm0 4.038c0.865 0 1.568 0.703 1.568 1.57 0 0.866-0.704 1.57-1.568 1.57-0.867 0-1.569-0.704-1.569-1.57 0-0.867 0.701-1.57 1.569-1.57zm0 4.04c0.865 0 1.568 0.704 1.568 1.569 0 0.867-0.704 1.568-1.568 1.568-0.867 0-1.569-0.701-1.569-1.568 0-0.866 0.701-1.569 1.569-1.569zm-4.254-8.078c0.867 0 1.569 0.703 1.569 1.568 0 0.867-0.702 1.569-1.569 1.569s-1.568-0.703-1.568-1.569c0-0.865 0.701-1.568 1.568-1.568zm0 4.038c0.867 0 1.569 0.703 1.569 1.57 0 0.866-0.702 1.57-1.569 1.57s-1.568-0.704-1.568-1.57c0-0.867 0.701-1.57 1.568-1.57zm0 4.04c0.867 0 1.569 0.704 1.569 1.569 0 0.867-0.702 1.568-1.569 1.568s-1.568-0.701-1.568-1.568c0-0.866 0.701-1.569 1.568-1.569zm0 4.039c0.867 0 1.569 0.702 1.569 1.569 0 0.865-0.702 1.568-1.569 1.568s-1.568-0.704-1.568-1.568c0-0.867 0.701-1.569 1.568-1.569zm-4.464-16.157c0.867 0 1.571 0.703 1.571 1.57 0 0.866-0.704 1.568-1.571 1.568-0.865 0-1.569-0.703-1.569-1.568 0-0.867 0.704-1.57 1.569-1.57zm0 4.04c0.867 0 1.571 0.703 1.571 1.568 0 0.867-0.704 1.569-1.571 1.569-0.865 0-1.569-0.703-1.569-1.569 0-0.865 0.704-1.568 1.569-1.568zm0 4.038c0.867 0 1.571 0.703 1.571 1.57 0 0.866-0.704 1.57-1.571 1.57-0.865 0-1.569-0.704-1.569-1.57 0-0.867 0.704-1.57 1.569-1.57zm0 4.04c0.867 0 1.571 0.704 1.571 1.569 0 0.867-0.704 1.568-1.571 1.568-0.865 0-1.569-0.701-1.569-1.568 0-0.866 0.704-1.569 1.569-1.569zm-4.037-8.078c0.865 0 1.569 0.703 1.569 1.568 0 0.867-0.704 1.569-1.569 1.569-0.867 0-1.569-0.703-1.569-1.569 0-0.865 0.702-1.568 1.569-1.568zm0 4.038c0.865 0 1.569 0.703 1.569 1.57 0 0.866-0.704 1.57-1.569 1.57-0.867 0-1.569-0.704-1.569-1.57 0-0.867 0.702-1.57 1.569-1.57z"/></g></svg>

<?xml version="1.0" encoding="utf-8"?>
<!-- Generator: Adobe Illustrator 15.0.0, SVG Export Plug-In . SVG Version: 6.00 Build 0)  -->
<!DOCTYPE svg PUBLIC "-//W3C//DTD SVG 1.1//EN" "http://www.w3.org/Graphics/SVG/1.1/DTD/svg11.dtd">
<svg version="1.1" id="Layer_1" xmlns="http://www.w3.org/2000/svg" xmlns:xlink="http://www.w3.org/1999/xlink" x="0px" y="0px"
	 width="107px" height="65px" viewBox="0 0 107 65" enable-background="new 0 0 107 65" xml:space="preserve">
<g>
	<path fill="#363636" d="M98.967,4.074c0.752,1.441,1.209,3.08,1.209,4.818v21.102c0,4.616-3.092,8.527-7.246,9.9
		c-1.325,3.987-3.778,7.854-8.051,10.432c-8.676,5.231-31.124,4.837-31.198,4.837c-0.078,0-22.513,0.395-31.189-4.837
		c-4.216-2.545-6.708-6.347-8.042-10.279c-4.418-1.209-7.756-5.251-7.756-10.053V8.893c0-1.688,0.427-3.282,1.139-4.693
		C4.17,5.109,0,6.918,0,10.434c0,6.243,0,25.687,0,29.983C0,50.668,11.839,64.85,53.657,64.85c41.82,0,53.657-14.182,53.657-24.433
		c0-4.296,0-23.74,0-29.983C107.313,6.75,102.738,4.94,98.967,4.074z"/>
	<path fill="#363636" d="M20.561,38.459h65.523c5.564,0,10.074-4.513,10.074-10.077V9.935c0-5.563-4.51-10.075-10.074-10.075H20.561
		c-5.564,0-10.075,4.511-10.075,10.075v18.447C10.486,33.946,14.997,38.459,20.561,38.459z M83.695,9.468
		c0.867,0,1.569,0.703,1.569,1.57c0,0.866-0.702,1.569-1.569,1.569s-1.568-0.703-1.568-1.569
		C82.127,10.17,82.828,9.468,83.695,9.468z M83.695,13.507c0.867,0,1.569,0.703,1.569,1.568c0,0.867-0.702,1.569-1.569,1.569
		s-1.568-0.702-1.568-1.569C82.127,14.21,82.828,13.507,83.695,13.507z M83.695,17.546c0.867,0,1.569,0.702,1.569,1.569
		c0,0.866-0.702,1.569-1.569,1.569s-1.568-0.703-1.568-1.569C82.127,18.248,82.828,17.546,83.695,17.546z M83.695,21.373
		c0.867,0,1.569,0.704,1.569,1.569c0,0.867-0.702,1.568-1.569,1.568s-1.568-0.701-1.568-1.568
		C82.127,22.076,82.828,21.373,83.695,21.373z M83.695,25.412c0.867,0,1.569,0.702,1.569,1.569c0,0.865-0.702,1.568-1.569,1.568
		s-1.568-0.704-1.568-1.568C82.127,26.114,82.828,25.412,83.695,25.412z M79.656,9.468c0.867,0,1.568,0.703,1.568,1.57
		c0,0.866-0.701,1.569-1.568,1.569c-0.865,0-1.568-0.703-1.568-1.569C78.088,10.17,78.791,9.468,79.656,9.468z M79.656,25.412
		c0.867,0,1.568,0.702,1.568,1.569c0,0.865-0.701,1.568-1.568,1.568c-0.865,0-1.568-0.704-1.568-1.568
		C78.088,26.114,78.791,25.412,79.656,25.412z M75.619,9.468c0.865,0,1.568,0.703,1.568,1.57c0,0.866-0.703,1.569-1.568,1.569
		c-0.867,0-1.569-0.703-1.569-1.569C74.05,10.17,74.752,9.468,75.619,9.468z M75.619,13.507c0.865,0,1.568,0.703,1.568,1.568
		c0,0.867-0.703,1.569-1.568,1.569c-0.867,0-1.569-0.702-1.569-1.569C74.05,14.21,74.752,13.507,75.619,13.507z M75.619,17.546
		c0.865,0,1.568,0.702,1.568,1.569c0,0.866-0.703,1.569-1.568,1.569c-0.867,0-1.569-0.703-1.569-1.569
		C74.05,18.248,74.752,17.546,75.619,17.546z M75.619,21.373c0.865,0,1.568,0.704,1.568,1.569c0,0.867-0.703,1.568-1.568,1.568
		c-0.867,0-1.569-0.701-1.569-1.568C74.05,22.076,74.752,21.373,75.619,21.373z M75.619,25.412c0.865,0,1.568,0.702,1.568,1.569
		c0,0.865-0.703,1.568-1.568,1.568c-0.867,0-1.569-0.704-1.569-1.568C74.05,26.114,74.752,25.412,75.619,25.412z M67.965,9.468
		c0.867,0,1.568,0.703,1.568,1.57c0,0.866-0.701,1.569-1.568,1.569s-1.568-0.703-1.568-1.569C66.396,10.17,67.1,9.468,67.965,9.468z
		 M67.965,17.546c0.867,0,1.568,0.702,1.568,1.569c0,0.866-0.701,1.569-1.568,1.569s-1.568-0.703-1.568-1.569
		C66.396,18.248,67.1,17.546,67.965,17.546z M67.965,21.427c0.867,0,1.568,0.701,1.568,1.568c0,0.865-0.701,1.569-1.568,1.569
		s-1.568-0.704-1.568-1.569C66.396,22.128,67.1,21.427,67.965,21.427z M67.965,25.412c0.867,0,1.568,0.702,1.568,1.569
		c0,0.865-0.701,1.568-1.568,1.568s-1.568-0.704-1.568-1.568C66.396,26.114,67.1,25.412,67.965,25.412z M63.926,9.468
		c0.867,0,1.57,0.703,1.57,1.57c0,0.866-0.703,1.569-1.57,1.569c-0.865,0-1.569-0.703-1.569-1.569
		C62.356,10.17,63.061,9.468,63.926,9.468z M63.926,17.546c0.867,0,1.57,0.702,1.57,1.569c0,0.866-0.703,1.569-1.57,1.569
		c-0.865,0-1.569-0.703-1.569-1.569C62.356,18.248,63.061,17.546,63.926,17.546z M63.926,25.412c0.867,0,1.57,0.702,1.57,1.569
		c0,0.865-0.703,1.568-1.57,1.568c-0.865,0-1.569-0.704-1.569-1.568C62.356,26.114,63.061,25.412,63.926,25.412z M59.888,9.468
		c0.865,0,1.569,0.703,1.569,1.57c0,0.866-0.704,1.569-1.569,1.569c-0.867,0-1.568-0.703-1.568-1.569
		C58.319,10.17,59.021,9.468,59.888,9.468z M59.888,13.507c0.865,0,1.569,0.703,1.569,1.568c0,0.867-0.704,1.569-1.569,1.569
		c-0.867,0-1.568-0.702-1.568-1.569C58.319,14.21,59.021,13.507,59.888,13.507z M59.888,17.546c0.865,0,1.569,0.702,1.569,1.569
		c0,0.866-0.704,1.569-1.569,1.569c-0.867,0-1.568-0.703-1.568-1.569C58.319,18.248,59.021,17.546,59.888,17.546z M59.888,25.412
		c0.865,0,1.569,0.702,1.569,1.569c0,0.865-0.704,1.568-1.569,1.568c-0.867,0-1.568-0.704-1.568-1.568
		C58.319,26.114,59.021,25.412,59.888,25.412z M51.598,9.468c0.867,0,1.569,0.703,1.569,1.57c0,0.866-0.702,1.569-1.569,1.569
		c-0.867,0-1.568-0.703-1.568-1.569C50.029,10.17,50.731,9.468,51.598,9.468z M51.598,13.507c0.867,0,1.569,0.703,1.569,1.568
		c0,0.867-0.702,1.569-1.569,1.569c-0.867,0-1.568-0.702-1.568-1.569C50.029,14.21,50.731,13.507,51.598,13.507z M51.598,17.546
		c0.867,0,1.569,0.702,1.569,1.569c0,0.866-0.702,1.569-1.569,1.569c-0.867,0-1.568-0.703-1.568-1.569
		C50.029,18.248,50.731,17.546,51.598,17.546z M51.598,21.427c0.867,0,1.569,0.701,1.569,1.568c0,0.865-0.702,1.569-1.569,1.569
		c-0.867,0-1.568-0.704-1.568-1.569C50.029,22.128,50.731,21.427,51.598,21.427z M51.598,25.412c0.867,0,1.569,0.702,1.569,1.569
		c0,0.865-0.702,1.568-1.569,1.568c-0.867,0-1.568-0.704-1.568-1.568C50.029,26.114,50.731,25.412,51.598,25.412z M47.559,13.507
		c0.867,0,1.568,0.703,1.568,1.568c0,0.867-0.701,1.569-1.568,1.569s-1.569-0.702-1.569-1.569
		C45.99,14.21,46.691,13.507,47.559,13.507z M39.057,13.295c0.865,0,1.569,0.703,1.569,1.568c0,0.867-0.704,1.569-1.569,1.569
		c-0.867,0-1.571-0.703-1.571-1.569C37.486,13.998,38.189,13.295,39.057,13.295z M39.057,17.333c0.865,0,1.569,0.703,1.569,1.57
		c0,0.866-0.704,1.57-1.569,1.57c-0.867,0-1.571-0.704-1.571-1.57C37.486,18.036,38.189,17.333,39.057,17.333z M35.018,9.255
		c0.865,0,1.568,0.703,1.568,1.57c0,0.866-0.704,1.568-1.568,1.568c-0.867,0-1.569-0.703-1.569-1.568
		C33.449,9.958,34.15,9.255,35.018,9.255z M35.018,13.295c0.865,0,1.568,0.703,1.568,1.568c0,0.867-0.704,1.569-1.568,1.569
		c-0.867,0-1.569-0.703-1.569-1.569C33.449,13.998,34.15,13.295,35.018,13.295z M35.018,17.333c0.865,0,1.568,0.703,1.568,1.57
		c0,0.866-0.704,1.57-1.568,1.57c-0.867,0-1.569-0.704-1.569-1.57C33.449,18.036,34.15,17.333,35.018,17.333z M35.018,21.373
		c0.865,0,1.568,0.704,1.568,1.569c0,0.867-0.704,1.568-1.568,1.568c-0.867,0-1.569-0.701-1.569-1.568
		C33.449,22.076,34.15,21.373,35.018,21.373z M30.764,13.295c0.867,0,1.569,0.703,1.569,1.568c0,0.867-0.702,1.569-1.569,1.569
		c-0.867,0-1.568-0.703-1.568-1.569C29.196,13.998,29.897,13.295,30.764,13.295z M30.764,17.333c0.867,0,1.569,0.703,1.569,1.57
		c0,0.866-0.702,1.57-1.569,1.57c-0.867,0-1.568-0.704-1.568-1.57C29.196,18.036,29.897,17.333,30.764,17.333z M30.764,21.373
		c0.867,0,1.569,0.704,1.569,1.569c0,0.867-0.702,1.568-1.569,1.568c-0.867,0-1.568-0.701-1.568-1.568
		C29.196,22.076,29.897,21.373,30.764,21.373z M30.764,25.412c0.867,0,1.569,0.702,1.569,1.569c0,0.865-0.702,1.568-1.569,1.568
		c-0.867,0-1.568-0.704-1.568-1.568C29.196,26.114,29.897,25.412,30.764,25.412z M26.3,9.255c0.867,0,1.571,0.703,1.571,1.57
		c0,0.866-0.704,1.568-1.571,1.568c-0.865,0-1.569-0.703-1.569-1.568C24.731,9.958,25.435,9.255,26.3,9.255z M26.3,13.295
		c0.867,0,1.571,0.703,1.571,1.568c0,0.867-0.704,1.569-1.571,1.569c-0.865,0-1.569-0.703-1.569-1.569
		C24.731,13.998,25.435,13.295,26.3,13.295z M26.3,17.333c0.867,0,1.571,0.703,1.571,1.57c0,0.866-0.704,1.57-1.571,1.57
		c-0.865,0-1.569-0.704-1.569-1.57C24.731,18.036,25.435,17.333,26.3,17.333z M26.3,21.373c0.867,0,1.571,0.704,1.571,1.569
		c0,0.867-0.704,1.568-1.571,1.568c-0.865,0-1.569-0.701-1.569-1.568C24.731,22.076,25.435,21.373,26.3,21.373z M22.263,13.295
		c0.865,0,1.569,0.703,1.569,1.568c0,0.867-0.704,1.569-1.569,1.569c-0.867,0-1.569-0.703-1.569-1.569
		C20.694,13.998,21.396,13.295,22.263,13.295z M22.263,17.333c0.865,0,1.569,0.703,1.569,1.57c0,0.866-0.704,1.57-1.569,1.57
		c-0.867,0-1.569-0.704-1.569-1.57C20.694,18.036,21.396,17.333,22.263,17.333z"/>
</g>
</svg>
